cutejava-front/src/assets/icons/svg/banner.svg

<?xml version="1.0" standalone="no"?><!DOCTYPE svg PUBLIC "-//W3C//DTD SVG 1.1//EN" "http://www.w3.org/Graphics/SVG/1.1/DTD/svg11.dtd"><svg t="1576036635178" class="icon" viewBox="0 0 1024 1024" version="1.1" xmlns="http://www.w3.org/2000/svg" p-id="11190" xmlns:xlink="http://www.w3.org/1999/xlink" width="200" height="200"><defs><style type="text/css"></style></defs><path d="M910.222222 216.177778c6.257778 0 11.377778-5.12 11.377778-11.377778l0-34.133333c0-6.257778-5.12-11.377778-11.377778-11.377778L546.133333 159.288889l0-20.821333c0-18.545778-13.880889-35.043556-32.312889-36.067556C494.136889 101.376 477.866667 117.077333 477.866667 136.533333l0 22.755556L113.777778 159.288889c-6.257778 0-11.377778 5.12-11.377778 11.377778l0 34.133333c0 6.257778 5.12 11.377778 11.377778 11.377778l22.755556 0 0 443.733333-22.755556 0c-6.257778 0-11.377778 5.12-11.377778 11.377778l0 34.133333c0 6.257778 5.12 11.377778 11.377778 11.377778l242.232889 0-84.195556 135.054222c-9.784889 15.701333-6.712889 36.864 8.305778 47.445333 6.030222 4.323556 12.856889 6.257778 19.683556 6.257778 11.377778 0 22.528-5.688889 29.013333-16.042667L436.451556 716.8l162.474667 0 107.633778 172.714667c6.485333 10.353778 17.635556 16.042667 29.013333 16.042667 6.826667 0 13.653333-1.934222 19.683556-6.257778 15.018667-10.581333 18.090667-31.744 8.305778-47.445333L679.367111 716.8 910.222222 716.8c6.257778 0 11.377778-5.12 11.377778-11.377778l0-34.133333c0-6.257778-5.12-11.377778-11.377778-11.377778l-22.755556 0L887.466667 216.177778 910.222222 216.177778zM477.866667 580.266667 216.177778 580.266667 216.177778 295.822222l261.688889 0L477.866667 580.266667zM807.822222 557.511111 557.511111 557.511111l0-34.133333 250.311111 0L807.822222 557.511111zM807.822222 455.111111 557.511111 455.111111l0-34.133333 250.311111 0L807.822222 455.111111zM807.822222 352.711111 557.511111 352.711111l0-34.133333 250.311111 0L807.822222 352.711111z" p-id="11191"></path></svg>

<svg class="icon" viewBox="0 0 1024 1024" xmlns="http://www.w3.org/2000/svg" width="200" height="200"><defs><style/></defs><path d="M910.222 216.178c6.258 0 11.378-5.12 11.378-11.378v-34.133c0-6.258-5.12-11.378-11.378-11.378H546.133v-20.821c0-18.546-13.88-35.044-32.313-36.068-19.683-1.024-35.953 14.677-35.953 34.133v22.756h-364.09c-6.257 0-11.377 5.12-11.377 11.378V204.8c0 6.258 5.12 11.378 11.378 11.378h22.755V659.91h-22.755c-6.258 0-11.378 5.12-11.378 11.378v34.133c0 6.258 5.12 11.378 11.378 11.378H356.01l-84.196 135.054c-9.785 15.702-6.713 36.864 8.306 47.446 6.03 4.323 12.857 6.257 19.683 6.257 11.378 0 22.528-5.689 29.014-16.042L436.452 716.8h162.474L706.56 889.515c6.485 10.353 17.636 16.042 29.013 16.042 6.827 0 13.654-1.934 19.684-6.257 15.019-10.582 18.09-31.744 8.306-47.446L679.367 716.8h230.855c6.258 0 11.378-5.12 11.378-11.378V671.29c0-6.258-5.12-11.378-11.378-11.378h-22.755V216.178h22.755zM477.867 580.267h-261.69V295.822h261.69v284.445zm329.955-22.756h-250.31v-34.133h250.31v34.133zm0-102.4h-250.31v-34.133h250.31v34.133zm0-102.4h-250.31v-34.133h250.31v34.133z"/></svg>
